ufans-frontend-package/public/assets/images/icons/wallet-dollar.svg

<svg width="55" height="55" viewBox="0 0 55 55" fill="none" xmlns="http://www.w3.org/2000/svg">
<path d="M27.167 54.332C12.188 54.332 0 42.146 0 27.166C0 12.186 12.188 0 27.167 0C42.146 0 54.334 12.187 54.334 27.166C54.334 42.145 42.147 54.332 27.167 54.332ZM27.167 7C16.047 7 7 16.047 7 27.166C7 38.286 16.047 47.333 27.167 47.333C38.287 47.333 47.334 38.286 47.334 27.166C47.334 16.047 38.287 7 27.167 7Z" fill="#6661E7"/>
<path d="M29.5761 12.2041C29.5761 12.2041 29.5761 12.3271 29.5761 12.4781C29.5761 12.6291 30.4661 12.8701 31.5351 13.1491C32.8741 13.4981 34.1101 13.9921 35.2561 14.6321C36.0001 15.0631 36.6661 15.8071 36.6661 16.9821C36.6661 18.4711 35.4911 19.6071 34.0021 19.6071C33.5321 19.6071 33.0631 19.4891 32.6321 19.2541C32.1011 18.9701 31.5711 18.7131 31.0451 18.4931C30.1481 18.1171 29.3801 18.8171 29.3801 19.9221V21.8761C29.3801 22.9811 30.2501 24.0981 31.2931 24.4621C35.8841 26.0641 37.8801 28.4131 37.8801 32.2971C37.8801 36.0731 35.3851 38.6881 31.5431 39.6931C30.4741 39.9731 29.5771 40.5171 29.5771 41.0911V42.1291C29.5771 43.2651 28.6761 44.1651 27.5401 44.1651C26.4041 44.1651 25.5041 43.2651 25.5041 42.1291C25.5041 42.1291 25.5041 41.6551 25.5041 41.0711C25.5041 40.4871 24.6111 39.9111 23.5371 39.6551C21.4851 39.1671 19.5461 38.3441 17.7871 37.2711C16.9651 36.7621 16.4551 35.9791 16.4551 34.9211C16.4551 33.3931 17.6311 32.2571 19.1581 32.2571C19.6671 32.2571 20.2161 32.4531 20.6851 32.7671C21.7241 33.4341 22.7311 33.9771 23.7861 34.3851C24.8161 34.7841 25.6981 34.0651 25.6981 32.9601V30.7311C25.6981 29.6261 24.8301 28.5091 23.7851 28.1491C19.4281 26.6491 17.2771 24.4881 17.2771 20.3881C17.2771 16.6811 19.7121 14.0181 23.5361 13.0221C24.6051 12.7441 25.5031 12.5661 25.5031 12.4361V12.2011C25.5031 11.0651 26.4031 10.1641 27.5391 10.1641C28.6751 10.1641 29.5761 11.0681 29.5761 12.2041ZM25.6981 20.8581V19.5701C25.6981 18.4651 24.7211 17.5891 23.8451 18.2621C23.2641 18.7081 22.9961 19.3211 22.9961 20.0381C22.9961 20.8051 23.2151 21.4161 23.9191 21.9591C24.7941 22.6341 25.6981 21.9631 25.6981 20.8581ZM29.3801 31.7131V33.1571C29.3801 34.2621 30.3501 35.1331 31.2451 34.4861C31.8531 34.0461 32.1611 33.4181 32.1611 32.6111C32.1611 31.7941 31.8951 31.1491 31.1641 30.5971C30.2831 29.9311 29.3801 30.6081 29.3801 31.7131Z" fill="#6661E7"/>
</svg>

<svg id="wallet-dollar" xmlns="http://www.w3.org/2000/svg" width="54.334" height="54.332" viewBox="0 0 54.334 54.332">
  <path id="Path_1" data-name="Path 1" d="M27.167,54.332A27.166,27.166,0,1,1,54.334,27.166,27.2,27.2,0,0,1,27.167,54.332ZM27.167,7A20.167,20.167,0,1,0,47.334,27.166,20.19,20.19,0,0,0,27.167,7Z" fill="#e44499"/>
  <path id="Path_2" data-name="Path 2" d="M29.576,12.2v.274a5.478,5.478,0,0,0,1.959.671,15.71,15.71,0,0,1,3.721,1.483A2.639,2.639,0,0,1,34,19.607a2.856,2.856,0,0,1-1.37-.353c-.531-.284-1.061-.541-1.587-.761-.9-.376-1.665.324-1.665,1.429v1.954a2.936,2.936,0,0,0,1.913,2.586c4.591,1.6,6.587,3.951,6.587,7.835,0,3.776-2.495,6.391-6.337,7.4-1.069.28-1.966.824-1.966,1.4v1.038a2.037,2.037,0,0,1-4.073,0V41.071c0-.584-.893-1.16-1.967-1.416a19.912,19.912,0,0,1-5.75-2.384,2.691,2.691,0,0,1,1.371-5.014,2.838,2.838,0,0,1,1.527.51,17.241,17.241,0,0,0,3.1,1.618A1.382,1.382,0,0,0,25.7,32.96V30.731a2.923,2.923,0,0,0-1.913-2.582c-4.357-1.5-6.508-3.661-6.508-7.761,0-3.707,2.435-6.37,6.259-7.366a7.33,7.33,0,0,0,1.967-.586V12.2a2.037,2.037,0,1,1,4.073,0ZM25.7,20.858V19.57c0-1.105-.977-1.981-1.853-1.308A2.135,2.135,0,0,0,23,20.038a2.2,2.2,0,0,0,.923,1.921C24.794,22.634,25.7,21.963,25.7,20.858ZM29.38,31.713v1.444c0,1.1.97,1.976,1.865,1.329a2.184,2.184,0,0,0,.916-1.875,2.322,2.322,0,0,0-1-2.014C30.283,29.931,29.38,30.608,29.38,31.713Z" fill="#e44499"/>
</svg>
